Hang On/Assets.xcassets/AppIcon.appiconset/hang_on_logo_1.svg

<?xml version="1.0" encoding="UTF-8" standalone="no"?>
<!-- Created with Inkscape (http://www.inkscape.org/) -->

<svg
   width="1000"
   height="1000"
   viewBox="0 0 264.58333 264.58333"
   version="1.1"
   id="svg1"
   inkscape:version="1.4 (e7c3feb1, 2024-10-09)"
   sodipodi:docname="hang_on_logo_1.svg"
   xml:space="preserve"
   inkscape:export-filename="hang_on_logo.png"
   inkscape:export-xdpi="98.304001"
   inkscape:export-ydpi="98.304001"
   xmlns:inkscape="http://www.inkscape.org/namespaces/inkscape"
   xmlns:sodipodi="http://sodipodi.sourceforge.net/DTD/sodipodi-0.dtd"
   xmlns:xlink="http://www.w3.org/1999/xlink"
   xmlns="http://www.w3.org/2000/svg"
   xmlns:svg="http://www.w3.org/2000/svg"><sodipodi:namedview
     id="namedview1"
     pagecolor="#ffffff"
     bordercolor="#000000"
     borderopacity="0.25"
     inkscape:showpageshadow="2"
     inkscape:pageopacity="0.0"
     inkscape:pagecheckerboard="0"
     inkscape:deskcolor="#d1d1d1"
     inkscape:document-units="px"
     showgrid="true"
     inkscape:zoom="0.88424128"
     inkscape:cx="335.88117"
     inkscape:cy="572.80746"
     inkscape:window-width="1728"
     inkscape:window-height="960"
     inkscape:window-x="0"
     inkscape:window-y="38"
     inkscape:window-maximized="1"
     inkscape:current-layer="layer3"><inkscape:grid
       id="grid1"
       units="px"
       originx="0"
       originy="0"
       spacingx="2.6458333"
       spacingy="2.6458333"
       empcolor="#0099e5"
       empopacity="0.30196078"
       color="#0099e5"
       opacity="0.14901961"
       empspacing="10"
       enabled="true"
       visible="true" /></sodipodi:namedview><defs
     id="defs1"><inkscape:path-effect
       effect="fillet_chamfer"
       id="path-effect3"
       is_visible="true"
       lpeversion="1"
       nodesatellites_param="F,0,0,1,0,0,0,1 @ F,0,0,1,0,0,0,1 @ F,0,0,1,0,0,0,1 @ F,0,0,1,0,0,0,1 @ F,0,0,1,0,0,0,1 @ F,0,0,1,0,0,0,1 @ F,0,0,1,0,0,0,1 @ F,0,0,1,0,0,0,1 | F,0,0,1,0,0,0,1 @ F,0,0,1,0,0,0,1 @ F,0,0,1,0,0,0,1 @ F,0,0,1,0,0,0,1 @ F,0,0,1,0,0,0,1 @ F,0,0,1,0,0,0,1 | F,0,0,1,0,0,0,1 @ F,0,0,1,0,0,0,1 @ F,0,0,1,0,0,0,1 @ F,0,0,1,0,2.6458292,0,1 @ F,0,0,1,0,2.6458352,0,1 @ F,0,0,1,0,0,0,1"
       radius="0"
       unit="px"
       method="auto"
       mode="F"
       chamfer_steps="1"
       flexible="false"
       use_knot_distance="true"
       apply_no_radius="true"
       apply_with_radius="true"
       only_selected="false"
       hide_knots="false" /><inkscape:path-effect
       effect="fillet_chamfer"
       id="path-effect14"
       is_visible="true"
       lpeversion="1"
       nodesatellites_param="F,0,0,1,0,21.16667,0,1 @ F,0,0,1,0,21.166661,0,1 @ F,0,0,1,0,21.166665,0,1 @ F,0,0,1,0,21.166665,0,1"
       radius="0"
       unit="px"
       method="auto"
       mode="F"
       chamfer_steps="1"
       flexible="false"
       use_knot_distance="true"
       apply_no_radius="true"
       apply_with_radius="true"
       only_selected="false"
       hide_knots="false" /><inkscape:path-effect
       effect="fillet_chamfer"
       id="path-effect13"
       is_visible="true"
       lpeversion="1"
       nodesatellites_param="F,0,0,1,0,21.166662,0,1 @ F,0,0,1,0,21.16668,0,1 @ F,0,0,1,0,0,0,1 @ F,0,0,1,0,0,0,1"
       radius="0"
       unit="px"
       method="auto"
       mode="F"
       chamfer_steps="1"
       flexible="false"
       use_knot_distance="true"
       apply_no_radius="true"
       apply_with_radius="true"
       only_selected="false"
       hide_knots="false" /><inkscape:path-effect
       effect="fillet_chamfer"
       id="path-effect12"
       is_visible="true"
       lpeversion="1"
       nodesatellites_param="F,0,0,1,0,13.229167,0,1 @ F,0,0,1,0,13.229165,0,1 @ F,0,0,1,0,13.22917,0,1 @ F,0,0,1,0,13.229178,0,1"
       radius="0"
       unit="px"
       method="auto"
       mode="F"
       chamfer_steps="1"
       flexible="false"
       use_knot_distance="true"
       apply_no_radius="true"
       apply_with_radius="true"
       only_selected="false"
       hide_knots="false" /><inkscape:path-effect
       effect="fillet_chamfer"
       id="path-effect11"
       is_visible="true"
       lpeversion="1"
       nodesatellites_param="F,0,0,1,0,0,0,1 @ F,0,0,1,0,0,0,1 @ F,0,0,1,0,0,0,1 @ F,0,0,1,0,0,0,1 @ F,0,0,1,0,19.698987,0,1 @ F,0,0,1,0,0,0,1 @ F,0,0,1,0,0,0,1 @ F,0,0,1,0,0,0,1 @ F,0,0,1,0,20.754716,0,1 @ F,0,0,1,0,0,0,1 @ F,0,0,1,0,0,0,1 @ F,0,0,1,0,0,0,1 @ F,0,0,1,0,18.794075,0,1 @ F,0,0,1,0,0,0,1 @ F,0,0,1,0,0,0,1 @ F,0,0,1,0,0,0,1 @ F,0,0,1,0,23.847238,0,1 @ F,0,0,1,0,0,0,1 @ F,0,0,1,0,0,0,1 @ F,0,0,1,0,0,0,1 @ F,0,0,1,0,0,0,1 @ F,0,0,1,0,0,0,1 @ F,0,0,1,0,13.465462,0,1 @ F,0,0,1,0,13.465462,0,1 @ F,0,0,1,0,13.683153,0,1 @ F,0,0,1,0,0,0,1 @ F,0,0,1,0,0,0,1"
       radius="0"
       unit="px"
       method="auto"
       mode="F"
       chamfer_steps="1"
       flexible="false"
       use_knot_distance="true"
       apply_no_radius="true"
       apply_with_radius="true"
       only_selected="false"
       hide_knots="false" /><inkscape:path-effect
       effect="fillet_chamfer"
       id="path-effect10"
       is_visible="true"
       lpeversion="1"
       nodesatellites_param="F,0,0,1,0,0,0,1 @ F,0,0,1,0,0,0,1 @ F,0,0,1,0,13.229166,0,1 @ F,0,0,1,0,0,0,1 @ F,0,0,1,0,13.229165,0,1 @ F,0,1,1,0,13.229165,0,1 @ F,0,0,1,0,0,0,1 @ F,0,1,1,0,13.229165,0,1 @ F,0,0,1,0,13.229169,0,1 @ F,0,0,1,0,0,0,1 @ F,0,0,1,0,0,0,1 @ F,0,0,1,0,13.229165,0,1 @ F,0,0,1,0,13.229169,0,1 @ F,0,0,1,0,0,0,1 @ F,0,0,1,0,0,0,1 @ F,0,0,1,0,13.229168,0,1 @ F,0,0,1,0,13.229169,0,1 @ F,0,0,1,0,0,0,1 @ F,0,0,1,0,0,0,1 @ F,0,0,1,0,0,0,1 @ F,0,0,1,0,0,0,1 @ F,0,0,1,0,13.229165,0,1 @ F,0,0,1,0,0,0,1 @ F,0,0,1,0,0,0,1 @ F,0,0,1,0,0,0,1"
       radius="0"
       unit="px"
       method="auto"
       mode="F"
       chamfer_steps="1"
       flexible="false"
       use_knot_distance="true"
       apply_no_radius="true"
       apply_with_radius="true"
       only_selected="false"
       hide_knots="false" /><linearGradient
       id="linearGradient2"
       inkscape:collect="always"><stop
         style="stop-color:#120032;stop-opacity:1"
         offset="0"
         id="stop2" /><stop
         style="stop-color:#45064d;stop-opacity:1"
         offset="0.1"
         id="stop4" /><stop
         style="stop-color:#d12078;stop-opacity:1"
         offset="0.35000002"
         id="stop5" /><stop
         style="stop-color:#ff7181;stop-opacity:1"
         offset="0.65000004"
         id="stop6" /><stop
         style="stop-color:#f9de85;stop-opacity:1"
         offset="1"
         id="stop3" /></linearGradient><inkscape:path-effect
       effect="fillet_chamfer"
       id="path-effect2"
       is_visible="true"
       lpeversion="1"
       nodesatellites_param="F,0,0,1,0,14.81667,0,1 @ F,0,0,1,0,14.816666,0,1 @ F,0,0,1,0,14.816663,0,1 @ F,0,0,1,0,14.81667,0,1"
       radius="0"
       unit="px"
       method="auto"
       mode="F"
       chamfer_steps="1"
       flexible="false"
       use_knot_distance="true"
       apply_no_radius="true"
       apply_with_radius="true"
       only_selected="false"
       hide_knots="false" /><inkscape:path-effect
       effect="fillet_chamfer"
       id="path-effect1"
       is_visible="true"
       lpeversion="1"
       nodesatellites_param="F,0,0,1,0,13.229166,0,1 @ F,0,0,1,0,13.229166,0,1 @ F,0,0,1,0,13.229166,0,1 @ F,0,0,1,0,13.229166,0,1 @ F,0,0,1,0,13.229163,0,1 @ F,0,0,1,0,13.229166,0,1 @ F,0,0,1,0,13.229163,0,1 @ F,0,0,1,0,13.229163,0,1 @ F,0,0,1,0,13.229163,0,1 @ F,0,0,1,0,13.229167,0,1 @ F,0,0,1,0,13.229167,0,1 @ F,0,0,1,0,13.22917,0,1"
       radius="0"
       unit="px"
       method="auto"
       mode="F"
       chamfer_steps="1"
       flexible="false"
       use_knot_distance="true"
       apply_no_radius="true"
       apply_with_radius="true"
       only_selected="false"
       hide_knots="false" /><filter
       style="color-interpolation-filters:sRGB;"
       inkscape:label="Drop Shadow"
       id="filter76"
       x="-0.052527497"
       y="-0.038908821"
       width="1.0835273"
       height="1.0778176"><feFlood
         result="flood"
         in="SourceGraphic"
         flood-opacity="0.498039"
         flood-color="rgb(0,0,0)"
         id="feFlood75" /><feGaussianBlur
         result="blur"
         in="SourceGraphic"
         stdDeviation="3.000000"
         id="feGaussianBlur75" /><feOffset
         result="offset"
         in="blur"
         dx="-5.000000"
         dy="0.000000"
         id="feOffset75" /><feComposite
         result="comp1"
         operator="out"
         in="flood"
         in2="offset"
         id="feComposite75" /><feComposite
         result="comp2"
         operator="atop"
         in="comp1"
         in2="SourceGraphic"
         id="feComposite76" /></filter><linearGradient
       inkscape:collect="always"
       xlink:href="#linearGradient2"
       id="linearGradient7"
       x1="119.0625"
       y1="0"
       x2="211.66666"
       y2="264.58331"
       gradientUnits="userSpaceOnUse" /><inkscape:path-effect
       effect="fillet_chamfer"
       id="path-effect13-6"
       is_visible="true"
       lpeversion="1"
       nodesatellites_param="F,0,0,1,0,13.229162,0,1 @ F,0,0,1,0,13.229167,0,1 @ F,0,0,1,0,13.22918,0,1 @ F,0,0,1,0,13.229165,0,1"
       radius="0"
       unit="px"
       method="auto"
       mode="F"
       chamfer_steps="1"
       flexible="false"
       use_knot_distance="true"
       apply_no_radius="true"
       apply_with_radius="true"
       only_selected="false"
       hide_knots="false" /><filter
       inkscape:label="In and Out"
       inkscape:menu="Shadows and Glows"
       inkscape:menu-tooltip="Inner colorized shadow, outer black shadow"
       style="color-interpolation-filters:sRGB;"
       id="filter57"
       x="-0.060472443"
       y="-0.060472443"
       width="1.152441"
       height="1.152441"><feGaussianBlur
         result="result0"
         in="SourceAlpha"
         stdDeviation="4"
         id="feGaussianBlur57" /><feOffset
         dx="5"
         dy="5"
         result="result4"
         id="feOffset57" /><feComposite
         in="SourceGraphic"
         in2="result4"
         operator="xor"
         result="result3"
         id="feComposite57" /></filter><filter
       inkscape:label="In and Out"
       inkscape:menu="Shadows and Glows"
       inkscape:menu-tooltip="Inner colorized shadow, outer black shadow"
       style="color-interpolation-filters:sRGB;"
       id="filter58"
       x="-0.072566926"
       y="-0.45354332"
       width="1.1829291"
       height="2.1433071"><feGaussianBlur
         result="result0"
         in="SourceAlpha"
         stdDeviation="4"
         id="feGaussianBlur58" /><feOffset
         dx="5"
         dy="5"
         result="result4"
         id="feOffset58" /><feComposite
         in="SourceGraphic"
         in2="result4"
         operator="xor"
         result="result3"
         id="feComposite58" /></filter></defs><g
     inkscape:groupmode="layer"
     id="layer2"
     inkscape:label="Background"><rect
       style="opacity:1;fill:url(#linearGradient7);stroke-width:3.78531;fill-opacity:1"
       id="rect1"
       width="264.58334"
       height="264.58334"
       x="0"
       y="0" /></g><g
     inkscape:groupmode="layer"
     id="layer3"
     inkscape:label="Logo"><path
       id="rect11"
       style="opacity:1;fill:#ffffff;fill-opacity:1;stroke:none;stroke-width:1.32292;stroke-dasharray:none;stroke-opacity:1"
       d="m 66.145832,52.916666 c -7.306266,10e-7 -13.229165,5.9229 -13.229166,13.229166 V 198.4375 c 1e-5,7.30626 5.922904,13.22915 13.229166,13.22916 H 198.4375 c 7.30626,-1e-5 13.22915,-5.9229 13.22916,-13.22916 V 66.145832 c 0,-7.306265 -5.9229,-13.229163 -13.22916,-13.229166 z m 21.166667,21.166666 h 89.958331 c 11.69003,-5e-6 21.16667,9.476637 21.16667,21.166667 0,11.690031 -9.47664,21.166671 -21.16667,21.166671 H 87.312499 c -11.690029,0 -21.16667,-9.47664 -21.166667,-21.166671 2e-6,-11.690027 9.47664,-21.166665 21.166667,-21.166667 z m 0,63.499998 h 89.958331 c 11.69003,1e-5 21.16666,9.47664 21.16667,21.16667 l -1e-5,15.875 a 2.6458306,2.6458306 135.00002 0 1 -2.64583,2.64583 H 68.791666 a 2.6458351,2.6458351 45.000002 0 1 -2.645835,-2.64584 l 10e-7,-15.87499 c 0,-11.69003 9.476637,-21.16667 21.166667,-21.16667 z"
       sodipodi:nodetypes="ssccccscsscsssssscsccss"
       inkscape:path-effect="#path-effect3"
       inkscape:original-d="m 66.145832,52.916666 c -7.306266,10e-7 -13.229165,5.9229 -13.229166,13.229166 V 198.4375 c 1e-5,7.30626 5.922904,13.22915 13.229166,13.22916 H 198.4375 c 7.30626,-1e-5 13.22915,-5.9229 13.22916,-13.22916 V 66.145832 c 0,-7.306265 -5.9229,-13.229163 -13.22916,-13.229166 z m 21.166667,21.166666 h 89.958331 c 11.69003,-5e-6 21.16667,9.476637 21.16667,21.166667 0,11.690031 -9.47664,21.166671 -21.16667,21.166671 H 87.312499 c -11.690029,0 -21.16667,-9.47664 -21.166667,-21.166671 2e-6,-11.690027 9.47664,-21.166665 21.166667,-21.166667 z m 0,63.499998 h 89.958331 c 11.69003,1e-5 21.16666,9.47664 21.16667,21.16667 l -1e-5,18.52083 H 66.145831 l 10e-7,-18.52083 c 0,-11.69003 9.476637,-21.16667 21.166667,-21.16667 z" /></g></svg>

<?xml version="1.0" encoding="UTF-8" standalone="no"?>
<!-- Created with Inkscape (http://www.inkscape.org/) -->

<svg
   width="1000"
   height="1000"
   viewBox="0 0 264.58333 264.58333"
   version="1.1"
   id="svg1"
   inkscape:version="1.4 (e7c3feb1, 2024-10-09)"
   sodipodi:docname="hang_on_logo_1.svg"
   xml:space="preserve"
   inkscape:export-filename="hang_on_logo.png"
   inkscape:export-xdpi="98.304001"
   inkscape:export-ydpi="98.304001"
   xmlns:inkscape="http://www.inkscape.org/namespaces/inkscape"
   xmlns:sodipodi="http://sodipodi.sourceforge.net/DTD/sodipodi-0.dtd"
   xmlns:xlink="http://www.w3.org/1999/xlink"
   xmlns="http://www.w3.org/2000/svg"
   xmlns:svg="http://www.w3.org/2000/svg"><sodipodi:namedview
     id="namedview1"
     pagecolor="#ffffff"
     bordercolor="#000000"
     borderopacity="0.25"
     inkscape:showpageshadow="2"
     inkscape:pageopacity="0.0"
     inkscape:pagecheckerboard="0"
     inkscape:deskcolor="#d1d1d1"
     inkscape:document-units="px"
     showgrid="true"
     inkscape:zoom="0.72265927"
     inkscape:cx="406.13884"
     inkscape:cy="462.87374"
     inkscape:window-width="1728"
     inkscape:window-height="960"
     inkscape:window-x="0"
     inkscape:window-y="38"
     inkscape:window-maximized="1"
     inkscape:current-layer="svg1"><inkscape:grid
       id="grid1"
       units="px"
       originx="0"
       originy="0"
       spacingx="2.6458333"
       spacingy="2.6458333"
       empcolor="#0099e5"
       empopacity="0.30196078"
       color="#0099e5"
       opacity="0.14901961"
       empspacing="10"
       enabled="false"
       visible="true" /></sodipodi:namedview><defs
     id="defs1"><inkscape:path-effect
       effect="fillet_chamfer"
       id="path-effect14"
       is_visible="true"
       lpeversion="1"
       nodesatellites_param="F,0,0,1,0,21.16667,0,1 @ F,0,0,1,0,21.166661,0,1 @ F,0,0,1,0,21.166665,0,1 @ F,0,0,1,0,21.166665,0,1"
       radius="0"
       unit="px"
       method="auto"
       mode="F"
       chamfer_steps="1"
       flexible="false"
       use_knot_distance="true"
       apply_no_radius="true"
       apply_with_radius="true"
       only_selected="false"
       hide_knots="false" /><inkscape:path-effect
       effect="fillet_chamfer"
       id="path-effect13"
       is_visible="true"
       lpeversion="1"
       nodesatellites_param="F,0,0,1,0,21.166662,0,1 @ F,0,0,1,0,21.16668,0,1 @ F,0,0,1,0,0,0,1 @ F,0,0,1,0,0,0,1"
       radius="0"
       unit="px"
       method="auto"
       mode="F"
       chamfer_steps="1"
       flexible="false"
       use_knot_distance="true"
       apply_no_radius="true"
       apply_with_radius="true"
       only_selected="false"
       hide_knots="false" /><inkscape:path-effect
       effect="fillet_chamfer"
       id="path-effect12"
       is_visible="true"
       lpeversion="1"
       nodesatellites_param="F,0,0,1,0,13.229167,0,1 @ F,0,0,1,0,13.229165,0,1 @ F,0,0,1,0,13.22917,0,1 @ F,0,0,1,0,13.229178,0,1"
       radius="0"
       unit="px"
       method="auto"
       mode="F"
       chamfer_steps="1"
       flexible="false"
       use_knot_distance="true"
       apply_no_radius="true"
       apply_with_radius="true"
       only_selected="false"
       hide_knots="false" /><inkscape:path-effect
       effect="fillet_chamfer"
       id="path-effect11"
       is_visible="true"
       lpeversion="1"
       nodesatellites_param="F,0,0,1,0,0,0,1 @ F,0,0,1,0,0,0,1 @ F,0,0,1,0,0,0,1 @ F,0,0,1,0,0,0,1 @ F,0,0,1,0,19.698987,0,1 @ F,0,0,1,0,0,0,1 @ F,0,0,1,0,0,0,1 @ F,0,0,1,0,0,0,1 @ F,0,0,1,0,20.754716,0,1 @ F,0,0,1,0,0,0,1 @ F,0,0,1,0,0,0,1 @ F,0,0,1,0,0,0,1 @ F,0,0,1,0,18.794075,0,1 @ F,0,0,1,0,0,0,1 @ F,0,0,1,0,0,0,1 @ F,0,0,1,0,0,0,1 @ F,0,0,1,0,23.847238,0,1 @ F,0,0,1,0,0,0,1 @ F,0,0,1,0,0,0,1 @ F,0,0,1,0,0,0,1 @ F,0,0,1,0,0,0,1 @ F,0,0,1,0,0,0,1 @ F,0,0,1,0,13.465462,0,1 @ F,0,0,1,0,13.465462,0,1 @ F,0,0,1,0,13.683153,0,1 @ F,0,0,1,0,0,0,1 @ F,0,0,1,0,0,0,1"
       radius="0"
       unit="px"
       method="auto"
       mode="F"
       chamfer_steps="1"
       flexible="false"
       use_knot_distance="true"
       apply_no_radius="true"
       apply_with_radius="true"
       only_selected="false"
       hide_knots="false" /><inkscape:path-effect
       effect="fillet_chamfer"
       id="path-effect10"
       is_visible="true"
       lpeversion="1"
       nodesatellites_param="F,0,0,1,0,0,0,1 @ F,0,0,1,0,0,0,1 @ F,0,0,1,0,13.229166,0,1 @ F,0,0,1,0,0,0,1 @ F,0,0,1,0,13.229165,0,1 @ F,0,1,1,0,13.229165,0,1 @ F,0,0,1,0,0,0,1 @ F,0,1,1,0,13.229165,0,1 @ F,0,0,1,0,13.229169,0,1 @ F,0,0,1,0,0,0,1 @ F,0,0,1,0,0,0,1 @ F,0,0,1,0,13.229165,0,1 @ F,0,0,1,0,13.229169,0,1 @ F,0,0,1,0,0,0,1 @ F,0,0,1,0,0,0,1 @ F,0,0,1,0,13.229168,0,1 @ F,0,0,1,0,13.229169,0,1 @ F,0,0,1,0,0,0,1 @ F,0,0,1,0,0,0,1 @ F,0,0,1,0,0,0,1 @ F,0,0,1,0,0,0,1 @ F,0,0,1,0,13.229165,0,1 @ F,0,0,1,0,0,0,1 @ F,0,0,1,0,0,0,1 @ F,0,0,1,0,0,0,1"
       radius="0"
       unit="px"
       method="auto"
       mode="F"
       chamfer_steps="1"
       flexible="false"
       use_knot_distance="true"
       apply_no_radius="true"
       apply_with_radius="true"
       only_selected="false"
       hide_knots="false" /><linearGradient
       id="linearGradient2"
       inkscape:collect="always"><stop
         style="stop-color:#120032;stop-opacity:1"
         offset="0"
         id="stop2" /><stop
         style="stop-color:#45064d;stop-opacity:1"
         offset="0.1"
         id="stop4" /><stop
         style="stop-color:#d12078;stop-opacity:1"
         offset="0.35000002"
         id="stop5" /><stop
         style="stop-color:#ff7181;stop-opacity:1"
         offset="0.65000004"
         id="stop6" /><stop
         style="stop-color:#f9de85;stop-opacity:1"
         offset="1"
         id="stop3" /></linearGradient><inkscape:path-effect
       effect="fillet_chamfer"
       id="path-effect2"
       is_visible="true"
       lpeversion="1"
       nodesatellites_param="F,0,0,1,0,14.81667,0,1 @ F,0,0,1,0,14.816666,0,1 @ F,0,0,1,0,14.816663,0,1 @ F,0,0,1,0,14.81667,0,1"
       radius="0"
       unit="px"
       method="auto"
       mode="F"
       chamfer_steps="1"
       flexible="false"
       use_knot_distance="true"
       apply_no_radius="true"
       apply_with_radius="true"
       only_selected="false"
       hide_knots="false" /><inkscape:path-effect
       effect="fillet_chamfer"
       id="path-effect1"
       is_visible="true"
       lpeversion="1"
       nodesatellites_param="F,0,0,1,0,13.229166,0,1 @ F,0,0,1,0,13.229166,0,1 @ F,0,0,1,0,13.229166,0,1 @ F,0,0,1,0,13.229166,0,1 @ F,0,0,1,0,13.229163,0,1 @ F,0,0,1,0,13.229166,0,1 @ F,0,0,1,0,13.229163,0,1 @ F,0,0,1,0,13.229163,0,1 @ F,0,0,1,0,13.229163,0,1 @ F,0,0,1,0,13.229167,0,1 @ F,0,0,1,0,13.229167,0,1 @ F,0,0,1,0,13.22917,0,1"
       radius="0"
       unit="px"
       method="auto"
       mode="F"
       chamfer_steps="1"
       flexible="false"
       use_knot_distance="true"
       apply_no_radius="true"
       apply_with_radius="true"
       only_selected="false"
       hide_knots="false" /><filter
       style="color-interpolation-filters:sRGB;"
       inkscape:label="Drop Shadow"
       id="filter76"
       x="-0.052527497"
       y="-0.038908821"
       width="1.0835273"
       height="1.0778176"><feFlood
         result="flood"
         in="SourceGraphic"
         flood-opacity="0.498039"
         flood-color="rgb(0,0,0)"
         id="feFlood75" /><feGaussianBlur
         result="blur"
         in="SourceGraphic"
         stdDeviation="3.000000"
         id="feGaussianBlur75" /><feOffset
         result="offset"
         in="blur"
         dx="-5.000000"
         dy="0.000000"
         id="feOffset75" /><feComposite
         result="comp1"
         operator="out"
         in="flood"
         in2="offset"
         id="feComposite75" /><feComposite
         result="comp2"
         operator="atop"
         in="comp1"
         in2="SourceGraphic"
         id="feComposite76" /></filter><linearGradient
       inkscape:collect="always"
       xlink:href="#linearGradient2"
       id="linearGradient7"
       x1="119.0625"
       y1="0"
       x2="211.66666"
       y2="264.58331"
       gradientUnits="userSpaceOnUse" /><inkscape:path-effect
       effect="fillet_chamfer"
       id="path-effect13-6"
       is_visible="true"
       lpeversion="1"
       nodesatellites_param="F,0,0,1,0,13.229162,0,1 @ F,0,0,1,0,13.229167,0,1 @ F,0,0,1,0,13.22918,0,1 @ F,0,0,1,0,13.229165,0,1"
       radius="0"
       unit="px"
       method="auto"
       mode="F"
       chamfer_steps="1"
       flexible="false"
       use_knot_distance="true"
       apply_no_radius="true"
       apply_with_radius="true"
       only_selected="false"
       hide_knots="false" /><filter
       inkscape:label="In and Out"
       inkscape:menu="Shadows and Glows"
       inkscape:menu-tooltip="Inner colorized shadow, outer black shadow"
       style="color-interpolation-filters:sRGB;"
       id="filter57"
       x="-0.060472443"
       y="-0.060472443"
       width="1.152441"
       height="1.152441"><feGaussianBlur
         result="result0"
         in="SourceAlpha"
         stdDeviation="4"
         id="feGaussianBlur57" /><feOffset
         dx="5"
         dy="5"
         result="result4"
         id="feOffset57" /><feComposite
         in="SourceGraphic"
         in2="result4"
         operator="xor"
         result="result3"
         id="feComposite57" /></filter><filter
       inkscape:label="In and Out"
       inkscape:menu="Shadows and Glows"
       inkscape:menu-tooltip="Inner colorized shadow, outer black shadow"
       style="color-interpolation-filters:sRGB;"
       id="filter58"
       x="-0.072566926"
       y="-0.45354332"
       width="1.1829291"
       height="2.1433071"><feGaussianBlur
         result="result0"
         in="SourceAlpha"
         stdDeviation="4"
         id="feGaussianBlur58" /><feOffset
         dx="5"
         dy="5"
         result="result4"
         id="feOffset58" /><feComposite
         in="SourceGraphic"
         in2="result4"
         operator="xor"
         result="result3"
         id="feComposite58" /></filter></defs><g
     inkscape:groupmode="layer"
     id="layer2"
     inkscape:label="Background"><rect
       style="opacity:1;fill:url(#linearGradient7);stroke-width:3.78531;fill-opacity:1"
       id="rect1"
       width="264.58334"
       height="264.58334"
       x="0"
       y="0" /></g><g
     inkscape:groupmode="layer"
     id="layer3"
     inkscape:label="Logo"><path
       id="rect11"
       style="opacity:1;fill:#deaa87;fill-opacity:1;stroke:none;stroke-width:1.32292;stroke-dasharray:none;stroke-opacity:1;filter:url(#filter57)"
       d="M 66.145832 52.916666 A 13.229167 13.229167 0 0 0 52.916666 66.145832 L 52.916666 198.4375 A 13.229178 13.229178 0 0 0 66.145832 211.66666 L 198.4375 211.66666 A 13.22917 13.22917 0 0 0 211.66666 198.4375 L 211.66666 66.145832 A 13.229165 13.229165 0 0 0 198.4375 52.916666 L 66.145832 52.916666 z M 87.312499 74.083332 L 177.27083 74.083332 A 21.166661 21.166661 0 0 1 198.4375 95.249999 A 21.166665 21.166665 0 0 1 177.27083 116.41667 L 87.312499 116.41667 A 21.166665 21.166665 0 0 1 66.145832 95.249999 A 21.16667 21.16667 0 0 1 87.312499 74.083332 z M 87.312499 137.58333 L 177.27083 137.58333 A 21.16668 21.16668 0 0 1 198.4375 158.75 L 198.4375 190.5 L 66.145832 190.5 L 66.145832 158.75 A 21.166662 21.166662 0 0 1 87.312499 137.58333 z " /><rect
       style="opacity:1;fill:#333333;fill-opacity:1;stroke:none;stroke-width:1.32292;stroke-dasharray:none;stroke-opacity:1;filter:url(#filter58)"
       id="rect18"
       width="132.29167"
       height="21.166666"
       x="66.145836"
       y="169.33333" /></g></svg>
